X:1
T: The Shrewsbury Lasses
N:
C:lines 1 and 3 are a little slower
S:3 times
A:
O:
R:
M:4/4
K:D
I:speed 212
%W: A1
% voice 1 (1 lines, 17 notes)
K:D
M:4/4
L:1/16
A4/3 B4/3 c4/3 |d4 A8 G4 |F4 D8 F4 |E4 G4 F4 E4 |F4 D4 F4 A4 |
%W:
% voice 1 (1 lines, 14 notes)
d4 f8 d4 |c4 e8 A4 |B4 d4 B4 ^G4 |A12 A4/3 |B4/3 c4/3
%W: A2
% voice 1 (1 lines, 14 notes)
d4 A8 |G4 F4 D8 |F4 E4 G4 F4 |E4 F4 D4 F4 |A4
%W:
% voice 1 (1 lines, 14 notes)
d4 f8 |d4 c4 e8 |A4 B4 d4 B4 |^G4 A12 |A4/3 B4/3 c4/3
%W: B1
% voice 1 (1 lines, 12 notes)
d4 |B8 G4G4 |E8 a4a4 |f8 d4d4 |B8 b4
%W:
% voice 1 (1 lines, 14 notes)
b4 |g8 e4e4 |c8 A4 G4 |B8 G4 F2 G2 |A4 F4 D4
%W:
% voice 1 (1 lines, 15 notes)
G4 |B8 G4 F4 |A4 d4 f4 f4 |e4 d4 c4 d12 |A4/3 B4/3 c4/3
%W: B2
% voice 1 (1 lines, 12 notes)
d4 |B8 G4G4 |E8 a4a4 |f8 d4d4 |B8 b4
%W:
% voice 1 (1 lines, 14 notes)
b4 |g8 e4e4 |c8 A4 G4 |B8 G4 F2 G2 |A4 F4 D4
%W:
% voice 1 (1 lines, 12 notes)
G4 |B8 G4 F4 |A4 d4 f4 f4 |e4 d4 c4 d12 |||
